X: 12
T: This Is My Love, Do You Like Her?
R: jig
M: 6/8
L: 1/8
K: Edor
|: B,2 D |EFE EDE | G3 G2 B | ABA AFA | d3 d2 e |
dBG GAB | AFD DEF | GFE FED | E3 :|
|: BB/c/d |efe edB | d2 d dB/c/d | e2 e edB | d3 B2 e |
dBG GBd | AFD D2 F | GG/F/E FED | E3 :|


Tune 6	Setting 12357

